X:121
T:Tobin's Favorite
R:jig
M:6/8
L:1/8
K:D
DFA dcd | ecA efg | fef g3 | ecA GFE |
DFA dcd | ecA efg | fef g3 | edc d3 :|
dfa agf | efg efg | fef g3 | ecA GFE |
DFA dcd | ecA efg | fef g3 | edc d3 :|

